!!!OTL: Zhenjing hong
!!!ARE: Asia, China,ÿAnhui, Jinzhai
!! III, 577
!!!SCT: C1606
!!!YEM: Copyright 1995, estate of Helmut Schaffrath.
**kern
*ICvox
*Ivox
!! Mixed meters:  2/4; 1/4
*M1/4
*k[b-e-a-]
*E-:
{8r
8cc
=1
*M2/4
16gg
16cc
4ee-
8ff
=2
16gg
16ee-
8ff
8r}
{8ff
=3
16bb-
16gg
8bb-
32a-
16.b-
32a-
16.b-
=4
16cc
16b-
8g
32f
16.g
32f
16.g
=5
8gg
16gg
16gg
8ff
8r}
=6
{16cc
16ee-
4ee-
8ff
=7
16gg
16ee-
8ff
8r}
{8ff
=8
32gg
32ff
32gg
32ff
4gg
16ccc
16bb-
=9
16gg
8.ff
16ee-
16ff
32gg
32ff
16gg
=10
16bb-
16gg
4ff
16ee-
16cc}
=11
*M1/4
{8r
8ff
=12
*M2/4
32bb-
32aa-
32bb-
32aa-
8bb-
32aa-
32bb-
32aa-
32bb-
32aa-
32bb-
32bb-
32gg
=13
16ccc
16bb-
8gg
4gg}
=14
{16bb-
16gg
8ff
8ff
16ee-
16ff
=15
16gg
32ff
32gg
16ff
16gg
16gg
16gg
8gg}
=16
{16gg
16ff
8ff
8gg
16ccc
16bb-
=17
16gg
8.ff
16ee-
16ff
32gg
32ff
16gg
=18
16bb-
16gg
8ff
8ff
16ee-
16cc}
=19
*M1/4
{8r
8ee-
=20
*M2/4
2ff
=21
16gg
16ff
8gg
16ff
8.gg
=22
16ccc
16bb-
8gg
16gg
16gg
8gg
=23
16gg
16ff
4ee-}
{8ff
=24
24gg
24ff
24gg
32ff
32gg
32ff
[32gg
8gg]
16ccc
16bb-
=25
*M1/4
16gg
8.ff}
=26
{16ee-
16ff
32gg
32ff
16gg
=27
16bb-
16gg
4ff
16ee-
16cc}
==
!!!AGN: Shange, Zhenjing hong, Guoshanqing
!!!AMT: irregular
!!!AIN: vox
!!!EED: Helmut Schaffrath
!!!EEV: 1.0
*-
